www/assets/icons/mode_edit_outline.svg

<svg width="24" height="24" viewBox="0 0 24 24" xmlns="http://www.w3.org/2000/svg" fill='currentColor'><path d="M2.99878 17.251V21.001H6.74878L17.8088 9.94103L14.0588 6.19104L2.99878 17.251Z"/><path d="M20.7088 5.63104L18.3688 3.29104C17.9788 2.90104 17.3488 2.90104 16.9588 3.29104L15.1288 5.12104L18.8788 8.87104L20.7088 7.04104C21.0988 6.65104 21.0988 6.02104 20.7088 5.63104Z"/></svg>

<svg xmlns="http://www.w3.org/2000/svg" width="24" height="24" viewBox="0 0 24 24" fill='currentColor'><path d="M2.999 17.251v3.75h3.75l11.06-11.06-3.75-3.75zm17.71-11.62-2.34-2.34a.996.996 0 0 0-1.41 0l-1.83 1.83 3.75 3.75 1.83-1.83a.996.996 0 0 0 0-1.41"/></svg>
